X: 2
T: Waterman's
R: jig
M: 6/8
L: 1/8
K: Emin
"Em"E2B BAG|AGA B2E|"D"GAA AGA|Bc G AGF|"C"E2B BAG|AGA B2E|"D"GAA ABG|AB G AGF:|"Em"g2e efg|f2 B BcA|"D"BcA ABG|AB cd af|"Em"g2e efg|f2 B BcA|"D"BcA ABG|AB F "Em"EGB|"Em"g2e efg|agf efd|"D/F#"abg fga|gfe fdB|"C"g2e efg|f2 B BcA|"D"BcA ABG|ABG AGF ||


Tune 3367	Setting 21544

